public/svg/linkedin.svg

<svg width="52" height="52" viewBox="0 0 52 52" fill="none" xmlns="http://www.w3.org/2000/svg">
<g opacity="0.6">
<path d="M41.6003 6.93359H10.4003C8.48493 6.93359 6.93359 8.48493 6.93359 10.4003V41.6003C6.93359 43.5156 8.48493 45.0669 10.4003 45.0669H41.6003C43.5156 45.0669 45.0669 43.5156 45.0669 41.6003V10.4003C45.0669 8.48493 43.5156 6.93359 41.6003 6.93359ZM18.9872 38.1336H13.8739V21.6808H18.9872V38.1336ZM16.3785 19.3287C14.7301 19.3287 13.3972 17.9923 13.3972 16.3473C13.3972 14.7024 14.7319 13.3677 16.3785 13.3677C18.0217 13.3677 19.3581 14.7041 19.3581 16.3473C19.3581 17.9923 18.0217 19.3287 16.3785 19.3287ZM38.1405 38.1336H33.0307V30.1325C33.0307 28.2241 32.996 25.7697 30.3735 25.7697C27.7128 25.7697 27.3037 27.848 27.3037 29.9939V38.1336H22.1939V21.6808H27.0992V23.9289H27.1685C27.8515 22.6359 29.5189 21.2717 32.0063 21.2717C37.1837 21.2717 38.1405 24.6795 38.1405 29.1099V38.1336Z" fill="white"/>
</g>
</svg>

<svg width="52" height="52" fill="none" xmlns="http://www.w3.org/2000/svg"><path d="M41.6 6.934H10.4A3.466 3.466 0 0 0 6.934 10.4v31.2a3.466 3.466 0 0 0 3.466 3.467h31.2a3.466 3.466 0 0 0 3.467-3.467V10.4A3.466 3.466 0 0 0 41.6 6.934Zm-22.613 31.2h-5.113V21.68h5.113v16.453ZM16.38 19.329a2.981 2.981 0 1 1 0-5.961 2.983 2.983 0 0 1 2.98 2.98 2.983 2.983 0 0 1-2.98 2.98ZM38.14 38.134h-5.11v-8.002c0-1.908-.035-4.362-2.657-4.362-2.661 0-3.07 2.078-3.07 4.224v8.14h-5.11V21.68h4.905v2.248h.07c.683-1.293 2.35-2.657 4.837-2.657 5.178 0 6.135 3.408 6.135 7.838v9.024Z" fill="#fff"/></svg>
